icons/mobile/20/svg/ad-blocker-checkmark-20.svg

<svg width="20" height="20" viewBox="0 0 20 20" fill="none" xmlns="http://www.w3.org/2000/svg">
<path fill-rule="evenodd" clip-rule="evenodd" d="M6.97656 2.89955C8.92655 2.37556 11.006 2.37096 12.959 2.88295C13.4358 3.00792 13.8718 3.25779 14.2178 3.60463L16.6963 6.08901C17.2102 6.60499 17.499 7.30346 17.499 8.03139V11.9689C17.499 12.6969 17.2103 13.3963 16.6963 13.9113L14.2168 16.3956C13.8749 16.7385 13.4623 16.9817 13.0225 17.0997C12.0375 17.3647 11.02 17.5001 10 17.5001C8.966 17.5001 7.93357 17.362 6.93457 17.089C6.49573 16.969 6.10608 16.7195 5.78418 16.3976C5.15518 15.7676 4.05176 14.6623 3.2998 13.9083C2.7858 13.3923 2.5 12.6979 2.5 11.9689V8.03139C2.5 7.30345 2.78882 6.60399 3.30273 6.08901L5.78223 3.60366C6.12409 3.26089 6.5368 3.01755 6.97656 2.89955ZM13.4053 7.82045C13.1124 7.52774 12.6376 7.52773 12.3447 7.82045L9.2666 10.8986L7.65527 9.28725C7.36244 8.99468 6.88756 8.99467 6.59473 9.28725C6.30191 9.58006 6.30208 10.0549 6.59473 10.3478L8.20605 11.9591C8.79192 12.5447 9.74132 12.5448 10.3271 11.9591L13.4053 8.881C13.698 8.5881 13.6981 8.1133 13.4053 7.82045Z" fill="black"/>
</svg>

<!-- This Source Code Form is subject to the terms of the Mozilla Public
   - License, v. 2.0. If a copy of the MPL was not distributed with this
   - file, You can obtain one at http://mozilla.org/MPL/2.0/. -->
<svg xmlns="http://www.w3.org/2000/svg" width="20" height="20" fill="none" viewBox="0 0 20 20">
    <path fill="#000" fill-rule="evenodd" d="M6.977 2.9a11.7 11.7 0 0 1 5.982-.017c.477.125.913.375 1.259.722l2.478 2.484c.514.516.803 1.214.803 1.942v3.938a2.75 2.75 0 0 1-.803 1.942l-2.48 2.485a2.7 2.7 0 0 1-1.193.704 11.64 11.64 0 0 1-6.088-.011 2.6 2.6 0 0 1-1.15-.691L3.3 13.908a2.74 2.74 0 0 1-.8-1.94V8.032c0-.728.289-1.427.803-1.942l2.48-2.485A2.7 2.7 0 0 1 6.976 2.9m6.428 4.92a.75.75 0 0 0-1.06 0L9.267 10.9 7.655 9.287a.75.75 0 0 0-1.06 1.06l1.611 1.612a1.5 1.5 0 0 0 2.121 0l3.078-3.078a.75.75 0 0 0 0-1.06" clip-rule="evenodd" />
</svg>
